Numix-GalliumOS/32/status/pamac-refresh.svg

<?xml version="1.0" encoding="UTF-8" standalone="no"?>
<svg
   xmlns:dc="http://purl.org/dc/elements/1.1/"
   xmlns:cc="http://creativecommons.org/ns#"
   xmlns:rdf="http://www.w3.org/1999/02/22-rdf-syntax-ns#"
   xmlns:svg="http://www.w3.org/2000/svg"
   xmlns="http://www.w3.org/2000/svg"
   xmlns:sodipodi="http://sodipodi.sourceforge.net/DTD/sodipodi-0.dtd"
   xmlns:inkscape="http://www.inkscape.org/namespaces/inkscape"
   width="32"
   height="32"
   viewBox="0 0 32 32"
   id="svg2"
   version="1.1"
   inkscape:version="0.91 r"
   sodipodi:docname="pamac-refresh.svg">
  <metadata
     id="metadata10">
    <rdf:RDF>
      <cc:Work
         rdf:about="">
        <dc:format>image/svg+xml</dc:format>
        <dc:type
           rdf:resource="http://purl.org/dc/dcmitype/StillImage" />
        <dc:title />
      </cc:Work>
    </rdf:RDF>
  </metadata>
  <defs
     id="defs8">
    <clipPath
       id="clipPath-408241621">
      <g
         transform="translate(0,-1004.3622)"
         id="g3616">
        <path
           style="fill:#1890d0"
           inkscape:connector-curvature="0"
           d="m -24,13 c 0,1.105 -0.672,2 -1.5,2 -0.828,0 -1.5,-0.895 -1.5,-2 0,-1.105 0.672,-2 1.5,-2 0.828,0 1.5,0.895 1.5,2 z"
           transform="matrix(15.333333,0,0,11.5,414.99999,878.8622)"
           id="path3618" />
      </g>
    </clipPath>
    <clipPath
       id="clipPath-408241621-1">
      <g
         transform="translate(0,-1004.3622)"
         id="g3616-3">
        <path
           style="fill:#1890d0"
           inkscape:connector-curvature="0"
           d="m -24,13 c 0,1.105 -0.672,2 -1.5,2 -0.828,0 -1.5,-0.895 -1.5,-2 0,-1.105 0.672,-2 1.5,-2 0.828,0 1.5,0.895 1.5,2 z"
           transform="matrix(15.333333,0,0,11.5,414.99999,878.8622)"
           id="path3618-3" />
      </g>
    </clipPath>
    <clipPath
       id="clipPath-408241621-6">
      <g
         transform="translate(0,-1004.3622)"
         id="g3616-1">
        <path
           style="fill:#1890d0"
           inkscape:connector-curvature="0"
           d="m -24,13 c 0,1.105 -0.672,2 -1.5,2 -0.828,0 -1.5,-0.895 -1.5,-2 0,-1.105 0.672,-2 1.5,-2 0.828,0 1.5,0.895 1.5,2 z"
           transform="matrix(15.333333,0,0,11.5,414.99999,878.8622)"
           id="path3618-8" />
      </g>
    </clipPath>
  </defs>
  <sodipodi:namedview
     pagecolor="#ffffff"
     bordercolor="#666666"
     borderopacity="1"
     objecttolerance="10"
     gridtolerance="10"
     guidetolerance="10"
     inkscape:pageopacity="0"
     inkscape:pageshadow="2"
     inkscape:window-width="1366"
     inkscape:window-height="747"
     id="namedview6"
     showgrid="true"
     inkscape:zoom="0.70710681"
     inkscape:cx="-117.15118"
     inkscape:cy="-147.40955"
     inkscape:window-x="0"
     inkscape:window-y="21"
     inkscape:window-maximized="1"
     inkscape:current-layer="svg2">
    <inkscape:grid
       type="xygrid"
       id="grid4138" />
  </sodipodi:namedview>
  <path
     style="fill:#c28e5c"
     d="M 10 5 L 5 11 L 15 11 L 15 5 L 10 5 z M 17 5 L 17 11 L 27 11 L 22 5 L 17 5 z M 5 13 L 5 27 L 17.669922 27 L 18.277344 24.947266 L 17.939453 24.818359 L 18.695312 22.935547 C 18.782982 22.717258 18.941118 22.55081 19.048828 22.345703 L 19.191406 21.863281 L 19.298828 21.921875 C 20.596367 19.830613 22.878893 18.5 25.408203 18.5 C 25.950851 18.5 26.484594 18.561677 27 18.675781 L 27 13 L 5 13 z "
     id="path4" />
  <g
     id="g4161"
     transform="matrix(0.9090909,0,0,0.9090909,15.409091,15.5)"
     style="fill:#4db147;fill-opacity:1">
    <g
       style="fill:#4db147;fill-opacity:1"
       id="g3628"
       transform="matrix(0.34782609,0,0,0.34782609,2.6435901,2.6456559)">
      <path
         inkscape:connector-curvature="0"
         id="path3630"
         transform="matrix(2.875,0,0,2.875,97.067647,-33.481261)"
         d="m -25.40625,14.5 c 2.303968,0 4.367461,1.302964 5.28125,3.3125 l 1.21875,-0.46875 -1,3.46875 -3.3125,-1.84375 1.28125,-0.5 c -0.620857,-1.310198 -1.9541,-2.125 -3.46875,-2.125 -1.572637,0 -2.996131,0.939574 -3.5625,2.34375 L -30.75,18 c 0.844805,-2.103515 2.984794,-3.5 5.34375,-3.5 z m -5.5,4.71875 3.3125,1.78125 -1.28125,0.5 c 0.613358,1.304699 1.964097,2.15625 3.46875,2.15625 1.575636,0 2.978635,-0.910324 3.5625,-2.3125 l 1.78125,0.6875 c -0.876798,2.103015 -2.979296,3.46875 -5.34375,3.46875 -2.292471,0 -4.386956,-1.339213 -5.28125,-3.34375 l -1.21875,0.4375 z"
         style="fill:#4db147;fill-opacity:1"
         sodipodi:nodetypes="scccccsccscccsccsccc" />
    </g>
    <g
       transform="matrix(0.49988464,0,0,0.49988464,-37.411065,7.9950011)"
       clip-path="url(#clipPath-408241621)"
       id="g3650"
       style="fill:#4db147;fill-opacity:1">
      <!-- color: #004794 -->
      <g
         id="g3652"
         style="fill:#4db147;fill-opacity:1" />
    </g>
  </g>
  <g
     id="g4161-9"
     transform="matrix(1.3636364,0,0,1.3636364,-26.377418,0.892504)"
     style="fill:#4db147;fill-opacity:1;stroke:#000000;stroke-width:4.4000001;stroke-miterlimit:4;stroke-dasharray:none;stroke-opacity:1">
    <g
       style="fill:#4db147;fill-opacity:1;stroke:#000000;stroke-width:12.64999962;stroke-miterlimit:4;stroke-dasharray:none;stroke-opacity:1"
       id="g3628-2"
       transform="matrix(0.34782609,0,0,0.34782609,2.6435901,2.6456559)" />
    <g
       transform="matrix(0.49988464,0,0,0.49988464,-37.411065,7.9950011)"
       clip-path="url(#clipPath-408241621-1)"
       id="g3650-2"
       style="fill:#4db147;fill-opacity:1;stroke:#000000;stroke-width:8.80203056;stroke-miterlimit:4;stroke-dasharray:none;stroke-opacity:1">
      <!-- color: #004794 -->
      <g
         id="g3652-0"
         style="fill:#4db147;fill-opacity:1;stroke:#000000;stroke-width:8.80203056;stroke-miterlimit:4;stroke-dasharray:none;stroke-opacity:1" />
    </g>
  </g>
  <g
     id="g4161-5"
     transform="matrix(0.9090909,0,0,0.9090909,15.409091,15.5)"
     style="fill:#4db147;fill-opacity:1;stroke:#000000;stroke-opacity:1;stroke-width:4.40000004;stroke-miterlimit:4;stroke-dasharray:none">
    <g
       style="fill:#4db147;fill-opacity:1;stroke:#000000;stroke-opacity:1;stroke-width:12.65000002;stroke-miterlimit:4;stroke-dasharray:none"
       id="g3628-0"
       transform="matrix(0.34782609,0,0,0.34782609,2.6435901,2.6456559)" />
    <g
       transform="matrix(0.49988464,0,0,0.49988464,-37.411065,7.9950011)"
       clip-path="url(#clipPath-408241621-6)"
       id="g3650-3"
       style="fill:#4db147;fill-opacity:1;stroke:#000000;stroke-opacity:1;stroke-width:8.80203089;stroke-miterlimit:4;stroke-dasharray:none">
      <!-- color: #004794 -->
      <g
         id="g3652-1"
         style="fill:#4db147;fill-opacity:1;stroke:#000000;stroke-opacity:1;stroke-width:8.80203089;stroke-miterlimit:4;stroke-dasharray:none" />
    </g>
  </g>
</svg>

<svg xmlns="http://www.w3.org/2000/svg" viewBox="0 0 32 32">
 <path d="m 10 5 l -5 6 l 10 0 l 0 -6 l -5 0 z m 7 0 l 0 6 l 10 0 l -5 -6 l -5 0 z m -12 8 l 0 14 l 12.67 0 l 0.607 -2.053 l -0.338 -0.129 l 0.756 -1.883 c 0.088 -0.218 0.246 -0.385 0.354 -0.59 l 0.143 -0.482 l 0.107 0.059 c 1.298 -2.091 3.58 -3.422 6.109 -3.422 c 0.543 0 1.076 0.062 1.592 0.176 l 0 -5.676 l -22 0 z" style="fill:#c28e5c"/>
 <g transform="matrix(0.9090909,0,0,0.9090909,15.409091,15.5)" style="fill:#4db147;fill-opacity:1">
  <g transform="matrix(0.34782609,0,0,0.34782609,2.6435901,2.6456559)">
   <path transform="matrix(2.875,0,0,2.875,97.067647,-33.481261)" d="m -25.406 14.5 c 2.304 0 4.367 1.303 5.281 3.313 l 1.219 -0.469 -1 3.469 -3.313 -1.844 1.281 -0.5 c -0.621 -1.31 -1.954 -2.125 -3.469 -2.125 -1.573 0 -2.996 0.94 -3.563 2.344 l -1.781 -0.688 c 0.845 -2.104 2.985 -3.5 5.344 -3.5 z m -5.5 4.719 3.313 1.781 -1.281 0.5 c 0.613 1.305 1.964 2.156 3.469 2.156 1.576 0 2.979 -0.91 3.563 -2.313 l 1.781 0.688 c -0.877 2.103 -2.979 3.469 -5.344 3.469 -2.292 0 -4.387 -1.339 -5.281 -3.344 l -1.219 0.438 z"/>
  </g>
  <g transform="matrix(0.49988464,0,0,0.49988464,-37.411065,7.9950011)">
   <!-- color: #004794 -->
  </g>
 </g>
 <g transform="matrix(1.3636364,0,0,1.3636364,-26.377418,0.892504)" style="stroke-dasharray:none;stroke-opacity:1;fill:#4db147;stroke-miterlimit:4;fill-opacity:1;stroke:#000;stroke-width:4.4">
  <g transform="matrix(0.49988464,0,0,0.49988464,-37.411065,7.9950011)" style="stroke:#000;stroke-width:8.802">
   <!-- color: #004794 -->
  </g>
 </g>
 <g transform="matrix(0.9090909,0,0,0.9090909,15.409091,15.5)" style="stroke-dasharray:none;stroke-opacity:1;fill:#4db147;stroke-miterlimit:4;fill-opacity:1;stroke:#000;stroke-width:4.4">
  <g transform="matrix(0.49988464,0,0,0.49988464,-37.411065,7.9950011)" style="stroke:#000;stroke-width:8.802">
   <!-- color: #004794 -->
  </g>
 </g>
</svg>
